X:714
T: STERBEN IST EIN HARTE BUSS
N: E2160
O: Europa, Mitteleuropa, Deutschland, Mittel - Franken, Wuelflingen
R: geistlich, Moral - Lied, Tod
M: 4/4
L: 1/16
K: F
 | F6G2A4A4 | G4G4F4z2
FG | A4A4c4c4 | c2B2B4A4z2
FA | c4c2f2d6c2 | B3AB3dc6
B2 | A4A4c2B2B2A2 | G4c4A6
FA | c4c2f2d6c2 | B3AB3dc6
B2 | A4A4c2B2B2A2 | G4c4A8

